X:87
T: Rock-a-Bye Baby
C: Daniel Steinberg
S: Hillbillies From Mars, "The Full Catastrophe"
Z:abc-transcription Josh Larios <hades@elsewhere.org>, 2016.08.18
M:4/4
L:1/8
G:Key: Dmix
K:Dmix
AB |: cddd dcAc | dcdg- g2 f2 | cddd dcAG |1-3 FAGF D2 Ac :|4 FAGF D2 D2 | 
G:Key: D
K:D
|: (3DEF G2 G2- GA | BABc d2 Ac | dcde dcAc | AGFA GFD2 | 
|1 (3DEF G2 G2- GA | BABc d2 A2 | fa-ab afde | (3fgf ec d2 A2 :|  
|2 (3DEF G2 G2- GA | BABc d2 z2 | [K:Dmix] c2- cB cBAG | FGAF D2 ||

